!!!OTL: Kranzsingen
!!!ARE: Europa, Mitteleuropa, Deutschland
!!!SCT: A0271B
!!!YEM: Copyright 1995, estate of Helmut Schaffrath.
**kern
*ICvox
*Ivox
*M4/1
*k[b-]
*F:
{2cc
=1
1cc
1cc
1dd
1cc
=2
1cc
1b-
1a
2r}
{2a
=3
1a
1cc
1.cc
2b-
=4
1a
1g
1f
2r}
{2f
=5
1f
1g
1.a
2g
=6
1f
1g
1.a}
{2a
=7
1a
1cc
1cc
1a
=8
1b-
1g
1.f}
==
!!!AGN: Romanze, Ballade, Lied
!! Geistl Ringeltentze 1550 No. 2
!!!ONB: ESAC (Essen Associative Code) Database: ALTDEU
!!!AMT: simple quadruple
!!!AIN: vox
!!!EED: Helmut Schaffrath
!!!EEV: 1.0
*-
